src/assets/icon-info.svg

<svg width="20" height="20" viewBox="0 0 20 20" fill="none" xmlns="http://www.w3.org/2000/svg">
<path d="M8.95835 9.16667H10L10 13.5417M17.7084 10C17.7084 14.2572 14.2572 17.7083 10 17.7083C5.74283 17.7083 2.29169 14.2572 2.29169 10C2.29169 5.74281 5.74283 2.29167 10 2.29167C14.2572 2.29167 17.7084 5.74281 17.7084 10Z" stroke="#F59D0E" stroke-width="1.5" stroke-linecap="round" stroke-linejoin="round"/>
<path d="M10.0003 6.125C10.2993 6.12518 10.5413 6.36795 10.5413 6.66699C10.5411 6.96589 10.2992 7.20783 10.0003 7.20801C9.70126 7.20801 9.45849 6.966 9.45831 6.66699C9.45831 6.36784 9.70115 6.125 10.0003 6.125Z" fill="#F59D0E" stroke="#F59D0E" stroke-width="0.25"/>
</svg>

<?xml version="1.0" encoding="UTF-8"?>
<svg id="Layer_1" xmlns="http://www.w3.org/2000/svg" version="1.1" viewBox="0 0 20 20">
  <!-- Generator: Adobe Illustrator 29.5.1, SVG Export Plug-In . SVG Version: 2.1.0 Build 141)  -->
  <defs>
    <style>
      .st0 {
        fill: none;
        stroke-linecap: round;
        stroke-linejoin: round;
        stroke-width: 1.5px;
      }

      .st0, .st1 {
        stroke: currentColor;
      }

      .st1 {
        fill: currentColor;
        stroke-width: .25px;
      }
    </style>
  </defs>
  <path class="st0" d="M8.96,9.17h1.04v4.38M17.71,10c0,4.26-3.45,7.71-7.71,7.71s-7.71-3.45-7.71-7.71,3.45-7.71,7.71-7.71,7.71,3.45,7.71,7.71Z"/>
  <path class="st1" d="M10,6.12c.3,0,.54.24.54.54,0,.3-.24.54-.54.54-.3,0-.54-.24-.54-.54,0-.3.24-.54.54-.54Z"/>
</svg>
